data/icons/private/hicolor/16x16/apps/arrow1-right-symbolic.svg

<?xml version="1.0" encoding="UTF-8"?>
<svg xmlns="http://www.w3.org/2000/svg" xmlns:xlink="http://www.w3.org/1999/xlink" height="16px" viewBox="0 0 16 16" width="16px"><filter id="a" height="100%" width="100%" x="0%" y="0%"><feColorMatrix color-interpolation-filters="sRGB" values="0 0 0 0 1 0 0 0 0 1 0 0 0 0 1 0 0 0 1 0"/></filter><mask id="b"><g filter="url(#a)"><path d="m -1.6 -1.6 h 19.2 v 19.2 h -19.2 z" fill-opacity="0.5"/></g></mask><clipPath id="c"><path d="m 0 0 h 1600 v 1200 h -1600 z"/></clipPath><mask id="d"><g filter="url(#a)"><path d="m -1.6 -1.6 h 19.2 v 19.2 h -19.2 z" fill-opacity="0.7"/></g></mask><clipPath id="e"><path d="m 0 0 h 1600 v 1200 h -1600 z"/></clipPath><mask id="f"><g filter="url(#a)"><path d="m -1.6 -1.6 h 19.2 v 19.2 h -19.2 z" fill-opacity="0.35"/></g></mask><clipPath id="g"><path d="m 0 0 h 1600 v 1200 h -1600 z"/></clipPath><g mask="url(#b)"><g clip-path="url(#c)" transform="matrix(1 0 0 1 -860 -40)"><path d="m 550 182 c -0.351562 0.003906 -0.695312 0.101562 -1 0.28125 v 3.4375 c 0.304688 0.179688 0.648438 0.277344 1 0.28125 c 1.105469 0 2 -0.894531 2 -2 s -0.894531 -2 -2 -2 z m 0 5 c -0.339844 0 -0.679688 0.058594 -1 0.175781 v 6.824219 h 4 v -4 c 0 -1.65625 -1.34375 -3 -3 -3 z m 0 0"/></g></g><g mask="url(#d)"><g clip-path="url(#e)" transform="matrix(1 0 0 1 -860 -40)"><path d="m 569 182 v 4 c 1.105469 0 2 -0.894531 2 -2 s -0.894531 -2 -2 -2 z m 0 5 v 7 h 3 v -4 c 0 -1.65625 -1.34375 -3 -3 -3 z m 0 0"/></g></g><g mask="url(#f)"><g clip-path="url(#g)" transform="matrix(1 0 0 1 -860 -40)"><path d="m 573 182.269531 v 3.449219 c 0.613281 -0.355469 0.996094 -1.007812 1 -1.71875 c 0 -0.714844 -0.382812 -1.375 -1 -1.730469 z m 0 4.90625 v 6.824219 h 2 v -4 c 0 -1.269531 -0.800781 -2.402344 -2 -2.824219 z m 0 0"/></g></g><path d="m 7 4 v 1 c 0 0.257812 0.128906 0.53125 0.3125 0.71875 l 1.28125 1.28125 h -8.59375 v 2 h 8.59375 l -1.28125 1.28125 c -0.183594 0.191406 -0.3125 0.460938 -0.3125 0.71875 v 1 h 1 c 0.308594 0 0.550781 -0.089844 0.75 -0.28125 l 3.65625 -3.71875 l -3.65625 -3.71875 c -0.199219 -0.191406 -0.441406 -0.28125 -0.75 -0.28125 z m 0 0" fill="#222222"/></svg>

<svg
        xmlns='http://www.w3.org/2000/svg'
        xmlns:svg='http://www.w3.org/2000/svg'
        xmlns:gpa='https://www.gtk.org/grappa'
        gpa:version='1'
        gpa:state='0'
        id='svg12'
        width='16px'
        height='16px'
        viewBox='0 0 16 16'>
  <filter
          id='a'
          x='0'
          y='0'
          width='1'
          height='1'>
    <feColorMatrix
            id='feColorMatrix1'
            values='0 0 0 0 1 0 0 0 0 1 0 0 0 0 1 0 0 0 1 0'>
    </feColorMatrix>
  </filter>
  <mask
          id='b'>
    <g
            id='g1'
            filter='url(#a)'>
      <path
              id='path1'
              fill-opacity='0.5'
              d='M -1.6 -1.6 L 17.6 -1.6 L 17.6 17.6 L -1.6 17.6 Z'
              gpa:animation-repeat='0'
              gpa:animation-segment='0'>
      </path>
    </g>
  </mask>
  <clipPath
          id='c'>
    <path
            id='path2'
            d='M 0 0 L 1600 0 L 1600 1200 L 0 1200 Z'
            gpa:animation-repeat='0'
            gpa:animation-segment='0'>
    </path>
  </clipPath>
  <mask
          id='d'>
    <g
            id='g3'
            filter='url(#a)'>
      <path
              id='path3'
              fill-opacity='0.7'
              d='M -1.6 -1.6 L 17.6 -1.6 L 17.6 17.6 L -1.6 17.6 Z'
              gpa:animation-repeat='0'
              gpa:animation-segment='0'>
      </path>
    </g>
  </mask>
  <clipPath
          id='e'>
    <path
            id='path4'
            d='M 0 0 L 1600 0 L 1600 1200 L 0 1200 Z'
            gpa:animation-repeat='0'
            gpa:animation-segment='0'>
    </path>
  </clipPath>
  <mask
          id='f'>
    <g
            id='g5'
            filter='url(#a)'>
      <path
              id='path5'
              fill-opacity='0.35'
              d='M -1.6 -1.6 L 17.6 -1.6 L 17.6 17.6 L -1.6 17.6 Z'
              gpa:animation-repeat='0'
              gpa:animation-segment='0'>
      </path>
    </g>
  </mask>
  <clipPath
          id='g'>
    <path
            id='path6'
            d='M 0 0 L 1600 0 L 1600 1200 L 0 1200 Z'
            gpa:animation-repeat='0'
            gpa:animation-segment='0'>
    </path>
  </clipPath>
  <g
          id='g8'
          mask='url(#b)'>
    <g
            id='g7'
            transform='matrix(1, 0, 0, 1, -860, -40)'
            clip-path='url(#c)'>
      <path
              id='path7'
              d='M 550 182 C 549.648 182.004, 549.305 182.102, 549 182.281 L 549 185.719 C 549.305 185.898, 549.648 185.996, 550 186 C 551.105 186, 552 185.105, 552 184 C 552 182.895, 551.105 182, 550 182 Z M 550 187 C 549.66 187, 549.32 187.059, 549 187.176 L 549 194 L 553 194 L 553 190 C 553 188.344, 551.656 187, 550 187 Z M 550 187'
              gpa:animation-repeat='0'
              gpa:animation-segment='0'>
      </path>
    </g>
  </g>
  <g
          id='g10'
          mask='url(#d)'>
    <g
            id='g9'
            transform='matrix(1, 0, 0, 1, -860, -40)'
            clip-path='url(#e)'>
      <path
              id='path8'
              d='M 569 182 L 569 186 C 570.105 186, 571 185.105, 571 184 C 571 182.895, 570.105 182, 569 182 Z M 569 187 L 569 194 L 572 194 L 572 190 C 572 188.344, 570.656 187, 569 187 Z M 569 187'
              gpa:animation-repeat='0'
              gpa:animation-segment='0'>
      </path>
    </g>
  </g>
  <g
          id='g12'
          mask='url(#f)'>
    <g
            id='g11'
            transform='matrix(1, 0, 0, 1, -860, -40)'
            clip-path='url(#g)'>
      <path
              id='path10'
              d='M 573 182.27 L 573 185.719 C 573.613 185.363, 573.996 184.711, 574 184 C 574 183.285, 573.617 182.625, 573 182.27 Z M 573 187.176 L 573 194 L 575 194 L 575 190 C 575 188.73, 574.199 187.598, 573 187.176 Z M 573 187.176'
              gpa:animation-repeat='0'
              gpa:animation-segment='0'>
      </path>
    </g>
  </g>
  <path
          id='path14'
          style=''
          opacity='1'
          fill='none'
          fill-rule='nonzero'
          stroke='url(#gpa:foreground) rgb(0,0,0)'
          stroke-opacity='1'
          stroke-width='2'
          stroke-linecap='round'
          stroke-linejoin='round'
          stroke-miterlimit='4'
          d='M 8 5 L 11 8 L 8 11 M 1 8 L 11 8'
          gpa:stroke-minwidth='25%'
          gpa:stroke-maxwidth='150%'
          gpa:animation-repeat='0'
          gpa:animation-segment='0'>
  </path>
</svg>
